media/img/firefox/landing/year-in-review/fx_Nothing-Personal_Sticker_Fast.svg

<svg width="42" height="80" viewBox="0 0 42 80" fill="none" xmlns="http://www.w3.org/2000/svg">
<path d="M19.0859 4H35.9514C37.315 4 38.1585 5.48613 37.4594 6.65688L29.5134 19.9641C28.8143 21.1348 29.6578 22.621 31.0214 22.621H35.7705C37.1721 22.621 38.0091 24.1818 37.2336 25.3492L28.3996 38.6476C27.6241 39.815 28.4611 41.3759 29.8626 41.3759H33.8383C35.3881 41.3759 36.1784 43.2368 35.1022 44.352L8.64888 71.7637C7.26142 73.2015 4.93301 71.5759 5.8045 69.778L14.6475 51.5343C15.2129 50.3679 14.3632 49.0118 13.067 49.0118H9.3315C7.99507 49.0118 7.14825 47.5786 7.79306 46.408L13.6321 35.808C14.2769 34.6374 13.4301 33.2041 12.0936 33.2041H5.88666C4.57257 33.2041 3.72387 31.8139 4.32438 30.6451L17.5236 4.95376C17.8244 4.36817 18.4275 4 19.0859 4Z" fill="white" stroke="white" stroke-width="7" stroke-linecap="round"/>
<path d="M19.0859 4H35.9514C37.315 4 38.1585 5.48613 37.4594 6.65688L29.5134 19.9641C28.8143 21.1348 29.6578 22.621 31.0214 22.621H35.7705C37.1721 22.621 38.0091 24.1818 37.2336 25.3492L28.3996 38.6476C27.6241 39.815 28.4611 41.3759 29.8626 41.3759H33.8383C35.3881 41.3759 36.1784 43.2368 35.1022 44.352L8.64888 71.7637C7.26142 73.2015 4.93301 71.5759 5.8045 69.778L14.6475 51.5343C15.2129 50.3679 14.3632 49.0118 13.067 49.0118H9.3315C7.99507 49.0118 7.14825 47.5786 7.79306 46.408L13.6321 35.808C14.2769 34.6374 13.4301 33.2041 12.0936 33.2041H5.88666C4.57257 33.2041 3.72387 31.8139 4.32438 30.6451L17.5236 4.95376C17.8244 4.36817 18.4275 4 19.0859 4Z" fill="#FFEA80" stroke="black" stroke-width="1.3" stroke-linecap="round"/>
</svg>

<svg xmlns="http://www.w3.org/2000/svg" width="42" height="80" fill="none" viewBox="0 0 42 80"><path fill="#fff" stroke="#fff" stroke-linecap="round" stroke-width="7" d="M19.086 4H35.95c1.364 0 2.207 1.486 1.508 2.657l-7.946 13.307c-.699 1.17.145 2.657 1.508 2.657h4.75c1.401 0 2.238 1.56 1.463 2.728L28.4 38.648c-.776 1.167.061 2.728 1.463 2.728h3.975c1.55 0 2.34 1.86 1.264 2.976L8.65 71.764c-1.388 1.438-3.716-.188-2.844-1.986l8.843-18.244a1.756 1.756 0 0 0-1.581-2.522H9.332a1.756 1.756 0 0 1-1.539-2.604l5.84-10.6a1.756 1.756 0 0 0-1.54-2.604H5.888a1.756 1.756 0 0 1-1.563-2.559l13.2-25.691c.3-.586.903-.954 1.562-.954Z"/><path fill="#ffea80" stroke="#000" stroke-linecap="round" stroke-width="1.3" d="M19.086 4H35.95c1.364 0 2.207 1.486 1.508 2.657l-7.946 13.307c-.699 1.17.145 2.657 1.508 2.657h4.75c1.401 0 2.238 1.56 1.463 2.728L28.4 38.648c-.776 1.167.061 2.728 1.463 2.728h3.975c1.55 0 2.34 1.86 1.264 2.976L8.65 71.764c-1.388 1.438-3.716-.188-2.844-1.986l8.843-18.244a1.756 1.756 0 0 0-1.581-2.522H9.332a1.756 1.756 0 0 1-1.539-2.604l5.84-10.6a1.756 1.756 0 0 0-1.54-2.604H5.888a1.756 1.756 0 0 1-1.563-2.559l13.2-25.691c.3-.586.903-.954 1.562-.954Z"/></svg>
